public/icons/diagram.svg

<svg width="345" height="354" viewBox="0 0 345 359" fill="none" xmlns="http://www.w3.org/2000/svg">
<path d="M25.6667 307C25.6667 309.946 28.0545 312.333 31 312.333C33.9455 312.333 36.3333 309.946 36.3333 307C36.3333 304.054 33.9455 301.667 31 301.667C28.0545 301.667 25.6667 304.054 25.6667 307ZM83.9763 230.226L83.9149 229.228L83.9763 230.226ZM301.667 69C301.667 71.9455 304.054 74.3333 307 74.3333C309.945 74.3333 312.333 71.9455 312.333 69C312.333 66.0545 309.945 63.6667 307 63.6667C304.054 63.6667 301.667 66.0545 301.667 69ZM31.9477 307.319C36.9662 292.417 43.3813 273.731 51.9174 258.564C60.4928 243.328 70.9956 232.027 84.0378 231.224L83.9149 229.228C69.7494 230.1 58.7783 242.296 50.1745 257.583C41.5315 272.94 35.0622 291.804 30.0523 306.681L31.9477 307.319ZM84.0378 231.224C100.795 230.192 113.61 236.365 127.076 240.773C140.534 245.178 154.398 247.684 172.707 238.803L171.834 237.003C154.171 245.571 140.893 243.191 127.699 238.872C114.513 234.556 101.168 228.166 83.9149 229.228L84.0378 231.224ZM172.707 238.803C191.192 229.836 195.335 211.522 198.513 195.259C200.119 187.045 201.467 179.403 204.175 173.44C206.85 167.553 210.795 163.429 217.589 162.111L217.208 160.147C209.613 161.621 205.219 166.309 202.354 172.613C199.524 178.843 198.134 186.774 196.551 194.875C193.352 211.241 189.32 228.522 171.834 237.003L172.707 238.803ZM217.589 162.111C232.42 159.233 239.999 148.929 245.684 139.355C248.558 134.514 250.889 129.974 253.474 126.442C256.042 122.931 258.678 120.687 262.004 120.243L261.74 118.261C257.595 118.814 254.534 121.605 251.86 125.261C249.201 128.894 246.744 133.652 243.964 138.334C238.341 147.803 231.153 157.442 217.208 160.147L217.589 162.111ZM262.004 120.243C267.526 119.507 272.63 116.346 277.268 112.035C281.914 107.717 286.173 102.171 290.005 96.5194C293.837 90.8678 297.276 85.0559 300.249 80.222C303.259 75.327 305.731 71.5391 307.68 69.7335L306.32 68.2665C304.126 70.2996 301.503 74.3636 298.545 79.1744C295.549 84.0463 292.149 89.7942 288.35 95.397C284.552 100.999 280.391 106.403 275.907 110.57C271.416 114.743 266.682 117.602 261.74 118.261L262.004 120.243Z" fill="#0062F5"/>
<g filter="url(#filter0_d_61_6642)">
<path d="M3 326C3 321.582 6.58172 318 11 318H50C54.4183 318 58 321.582 58 326V346C58 350.418 54.4183 354 50 354H11C6.58172 354 3 350.418 3 346V326Z" fill="white"/>
<path d="M11 317.5C6.30558 317.5 2.5 321.306 2.5 326V346C2.5 350.694 6.30558 354.5 11 354.5H50C54.6944 354.5 58.5 350.694 58.5 346V326C58.5 321.306 54.6944 317.5 50 317.5H11Z" stroke="black" stroke-opacity="0.08"/>
<path d="M24.3366 330.818V341H22.9247L17.7493 333.533H17.6548V341H16.1186V330.818H17.5405L22.7209 338.295H22.8153V330.818H24.3366ZM29.6749 341.154C28.959 341.154 28.3342 340.99 27.8006 340.662C27.267 340.334 26.8527 339.875 26.5577 339.285C26.2627 338.695 26.1152 338.005 26.1152 337.217C26.1152 336.424 26.2627 335.732 26.5577 335.138C26.8527 334.545 27.267 334.085 27.8006 333.756C28.3342 333.428 28.959 333.264 29.6749 333.264C30.3908 333.264 31.0156 333.428 31.5492 333.756C32.0828 334.085 32.4971 334.545 32.7921 335.138C33.0871 335.732 33.2346 336.424 33.2346 337.217C33.2346 338.005 33.0871 338.695 32.7921 339.285C32.4971 339.875 32.0828 340.334 31.5492 340.662C31.0156 340.99 30.3908 341.154 29.6749 341.154ZM29.6799 339.906C30.1439 339.906 30.5284 339.784 30.8333 339.538C31.1382 339.293 31.3636 338.967 31.5094 338.559C31.6586 338.151 31.7331 337.702 31.7331 337.212C31.7331 336.724 31.6586 336.277 31.5094 335.869C31.3636 335.458 31.1382 335.129 30.8333 334.88C30.5284 334.631 30.1439 334.507 29.6799 334.507C29.2125 334.507 28.8248 334.631 28.5165 334.88C28.2116 335.129 27.9846 335.458 27.8354 335.869C27.6896 336.277 27.6167 336.724 27.6167 337.212C27.6167 337.702 27.6896 338.151 27.8354 338.559C27.9846 338.967 28.2116 339.293 28.5165 339.538C28.8248 339.784 29.2125 339.906 29.6799 339.906ZM36.3169 341L34.0698 333.364H35.606L37.1025 338.972H37.177L38.6784 333.364H40.2147L41.7061 338.947H41.7807L43.2672 333.364H44.8034L42.5613 341H41.0449L39.4938 335.487H39.3794L37.8283 341H36.3169Z" fill="black"/>
</g>
<path d="M276 8C276 3.58172 279.582 0 284 0H337C341.418 0 345 3.58172 345 8V49C345 53.4183 341.418 57 337 57H284C279.582 57 276 53.4183 276 49V8Z" fill="url(#paint0_linear_61_6642)"/>
<path d="M294.5 15.7464C294.46 15.3454 294.29 15.0339 293.988 14.8118C293.686 14.5897 293.277 14.4787 292.76 14.4787C292.409 14.4787 292.112 14.5284 291.87 14.6278C291.628 14.724 291.443 14.8582 291.313 15.0305C291.187 15.2029 291.124 15.3984 291.124 15.6172C291.118 15.7995 291.156 15.9586 291.239 16.0945C291.325 16.2304 291.443 16.348 291.592 16.4474C291.741 16.5436 291.913 16.6281 292.109 16.701C292.304 16.7706 292.513 16.8303 292.735 16.88L293.65 17.0987C294.094 17.1982 294.502 17.3307 294.873 17.4964C295.244 17.6622 295.566 17.866 295.838 18.108C296.109 18.3499 296.32 18.6349 296.469 18.9631C296.621 19.2912 296.699 19.6674 296.703 20.0916C296.699 20.7147 296.54 21.255 296.225 21.7124C295.914 22.1664 295.463 22.5194 294.873 22.7713C294.286 23.0199 293.579 23.1442 292.75 23.1442C291.928 23.1442 291.212 23.0182 290.602 22.7663C289.996 22.5144 289.522 22.1416 289.181 21.6477C288.843 21.1506 288.665 20.5357 288.649 19.8033H290.732C290.755 20.1446 290.853 20.4297 291.025 20.6584C291.201 20.8838 291.434 21.0545 291.726 21.1705C292.021 21.2831 292.354 21.3395 292.725 21.3395C293.09 21.3395 293.406 21.2865 293.675 21.1804C293.947 21.0743 294.157 20.9268 294.306 20.7379C294.455 20.549 294.53 20.3319 294.53 20.0866C294.53 19.858 294.462 19.6657 294.326 19.5099C294.194 19.3542 293.998 19.2216 293.74 19.1122C293.484 19.0028 293.171 18.9034 292.8 18.8139L291.691 18.5355C290.833 18.3267 290.155 18.0002 289.658 17.5561C289.161 17.112 288.914 16.5137 288.917 15.7614C288.914 15.1449 289.078 14.6063 289.409 14.1456C289.744 13.6849 290.203 13.3253 290.786 13.0668C291.37 12.8082 292.033 12.679 292.775 12.679C293.531 12.679 294.19 12.8082 294.754 13.0668C295.32 13.3253 295.761 13.6849 296.076 14.1456C296.391 14.6063 296.553 15.1399 296.563 15.7464H294.5ZM301.591 23.1491C300.805 23.1491 300.129 22.9901 299.562 22.6719C298.999 22.3504 298.565 21.8963 298.26 21.3097C297.955 20.7197 297.803 20.022 297.803 19.2166C297.803 18.4311 297.955 17.7417 298.26 17.1484C298.565 16.5552 298.994 16.0928 299.548 15.7614C300.104 15.4299 300.757 15.2642 301.506 15.2642C302.01 15.2642 302.479 15.3454 302.913 15.5078C303.351 15.6669 303.732 15.9072 304.057 16.2287C304.385 16.5502 304.64 16.9545 304.822 17.4418C305.005 17.9257 305.096 18.4924 305.096 19.142V19.7237H298.648V18.4112H303.102C303.102 18.1063 303.036 17.8362 302.903 17.6009C302.771 17.3655 302.587 17.1816 302.352 17.049C302.12 16.9131 301.849 16.8452 301.541 16.8452C301.22 16.8452 300.935 16.9197 300.686 17.0689C300.441 17.2147 300.249 17.4119 300.109 17.6605C299.97 17.9058 299.899 18.1792 299.896 18.4808V19.7287C299.896 20.1065 299.965 20.433 300.104 20.7081C300.247 20.9832 300.447 21.1953 300.706 21.3445C300.964 21.4936 301.271 21.5682 301.626 21.5682C301.861 21.5682 302.076 21.535 302.272 21.4688C302.468 21.4025 302.635 21.303 302.774 21.1705C302.913 21.0379 303.019 20.8755 303.092 20.6832L305.051 20.8125C304.952 21.2831 304.748 21.6941 304.44 22.0455C304.135 22.3935 303.74 22.6652 303.256 22.8608C302.776 23.053 302.221 23.1491 301.591 23.1491ZM306.478 25.8636V15.3636H308.566V16.6463H308.661C308.753 16.4408 308.888 16.232 309.063 16.0199C309.242 15.8045 309.474 15.6255 309.759 15.483C310.048 15.3371 310.406 15.2642 310.833 15.2642C311.39 15.2642 311.904 15.41 312.374 15.7017C312.845 15.9901 313.221 16.4259 313.503 17.0092C313.785 17.5893 313.925 18.3168 313.925 19.1918C313.925 20.0436 313.788 20.7628 313.513 21.3494C313.241 21.9328 312.87 22.3752 312.399 22.6768C311.932 22.9751 311.408 23.1243 310.828 23.1243C310.417 23.1243 310.067 23.0563 309.779 22.9205C309.494 22.7846 309.26 22.6139 309.078 22.4084C308.896 22.1996 308.757 21.9891 308.661 21.777H308.596V25.8636H306.478ZM308.551 19.1818C308.551 19.6359 308.614 20.032 308.74 20.37C308.866 20.7081 309.048 20.9716 309.287 21.1605C309.526 21.3461 309.816 21.4389 310.157 21.4389C310.502 21.4389 310.793 21.3445 311.032 21.1555C311.271 20.9633 311.451 20.6982 311.574 20.3601C311.7 20.0187 311.763 19.6259 311.763 19.1818C311.763 18.741 311.701 18.3532 311.579 18.0185C311.456 17.6837 311.276 17.4219 311.037 17.233C310.798 17.044 310.505 16.9496 310.157 16.9496C309.812 16.9496 309.521 17.0407 309.282 17.223C309.047 17.4053 308.866 17.6638 308.74 17.9986C308.614 18.3333 308.551 18.7277 308.551 19.1818ZM322.987 12.8182V23H320.835V14.8615H320.775L318.443 16.3232V14.4141L320.964 12.8182H322.987ZM325.81 23L330.031 14.6477V14.5781H325.114V12.8182H332.258V14.603L328.032 23H325.81ZM295.918 43V41.858L298.948 38.8878C299.238 38.5952 299.479 38.3352 299.672 38.108C299.866 37.8807 300.01 37.6605 300.107 37.4474C300.204 37.2344 300.252 37.0071 300.252 36.7656C300.252 36.4901 300.189 36.2543 300.064 36.0582C299.939 35.8594 299.768 35.706 299.549 35.598C299.33 35.4901 299.081 35.4361 298.803 35.4361C298.516 35.4361 298.265 35.4957 298.049 35.6151C297.833 35.7315 297.665 35.8977 297.546 36.1136C297.43 36.3295 297.371 36.5866 297.371 36.8849H295.867C295.867 36.331 295.993 35.8494 296.246 35.4403C296.499 35.0312 296.847 34.7145 297.29 34.4901C297.736 34.2656 298.248 34.1534 298.824 34.1534C299.41 34.1534 299.924 34.2628 300.367 34.4815C300.81 34.7003 301.154 35 301.398 35.3807C301.645 35.7614 301.769 36.196 301.769 36.6847C301.769 37.0114 301.706 37.3324 301.581 37.6477C301.456 37.9631 301.236 38.3125 300.921 38.696C300.608 39.0795 300.17 39.544 299.604 40.0895L298.1 41.6193V41.679H301.901V43H295.918ZM306.597 43.1662C305.895 43.1662 305.293 42.9886 304.79 42.6335C304.29 42.2756 303.905 41.7599 303.635 41.0866C303.368 40.4105 303.235 39.5966 303.235 38.6449C303.238 37.6932 303.373 36.8835 303.64 36.2159C303.91 35.5455 304.295 35.0341 304.795 34.6818C305.297 34.3295 305.898 34.1534 306.597 34.1534C307.296 34.1534 307.897 34.3295 308.4 34.6818C308.903 35.0341 309.287 35.5455 309.555 36.2159C309.824 36.8864 309.959 37.696 309.959 38.6449C309.959 39.5994 309.824 40.4148 309.555 41.0909C309.287 41.7642 308.903 42.2784 308.4 42.6335C307.9 42.9886 307.299 43.1662 306.597 43.1662ZM306.597 41.8324C307.143 41.8324 307.573 41.5639 307.888 41.027C308.206 40.4872 308.366 39.6932 308.366 38.6449C308.366 37.9517 308.293 37.3693 308.148 36.8977C308.003 36.4261 307.799 36.071 307.535 35.8324C307.27 35.5909 306.958 35.4702 306.597 35.4702C306.055 35.4702 305.626 35.7401 305.31 36.2798C304.995 36.8168 304.836 37.6051 304.833 38.6449C304.83 39.3409 304.9 39.9261 305.042 40.4006C305.187 40.875 305.391 41.233 305.655 41.4744C305.92 41.7131 306.233 41.8324 306.597 41.8324ZM311.375 43V41.858L314.405 38.8878C314.695 38.5952 314.936 38.3352 315.129 38.108C315.323 37.8807 315.468 37.6605 315.564 37.4474C315.661 37.2344 315.709 37.0071 315.709 36.7656C315.709 36.4901 315.646 36.2543 315.521 36.0582C315.396 35.8594 315.225 35.706 315.006 35.598C314.787 35.4901 314.539 35.4361 314.26 35.4361C313.973 35.4361 313.722 35.4957 313.506 35.6151C313.29 35.7315 313.122 35.8977 313.003 36.1136C312.887 36.3295 312.828 36.5866 312.828 36.8849H311.324C311.324 36.331 311.45 35.8494 311.703 35.4403C311.956 35.0312 312.304 34.7145 312.747 34.4901C313.193 34.2656 313.705 34.1534 314.281 34.1534C314.867 34.1534 315.381 34.2628 315.824 34.4815C316.267 34.7003 316.611 35 316.855 35.3807C317.102 35.7614 317.226 36.196 317.226 36.6847C317.226 37.0114 317.164 37.3324 317.039 37.6477C316.914 37.9631 316.693 38.3125 316.378 38.696C316.066 39.0795 315.627 39.544 315.061 40.0895L313.557 41.6193V41.679H317.358V43H311.375ZM318.483 41.3807V40.1236L322.186 34.2727H323.235V36.0625H322.595L320.102 40.0128V40.081H325.271V41.3807H318.483ZM322.646 43V40.9972L322.664 40.4347V34.2727H324.155V43H322.646Z" fill="white"/>
<rect x="3" y="305" width="342" height="1" fill="black" fill-opacity="0.08"/>
<rect x="3" y="258" width="342" height="1" fill="black" fill-opacity="0.08"/>
<rect x="3" y="211" width="342" height="1" fill="black" fill-opacity="0.08"/>
<rect x="3" y="164" width="342" height="1" fill="black" fill-opacity="0.08"/>
<rect x="3" y="117" width="342" height="1" fill="black" fill-opacity="0.08"/>
<rect x="3" y="70" width="342" height="1" fill="black" fill-opacity="0.08"/>
<defs>
<filter id="filter0_d_61_6642" x="0" y="317" width="61" height="42" filterUnits="userSpaceOnUse" color-interpolation-filters="sRGB">
<feFlood flood-opacity="0" result="BackgroundImageFix"/>
<feColorMatrix in="SourceAlpha" type="matrix" values="0 0 0 0 0 0 0 0 0 0 0 0 0 0 0 0 0 0 127 0" result="hardAlpha"/>
<feMorphology radius="2" operator="erode" in="SourceAlpha" result="effect1_dropShadow_61_6642"/>
<feOffset dy="2"/>
<feGaussianBlur stdDeviation="2"/>
<feColorMatrix type="matrix" values="0 0 0 0 0 0 0 0 0 0 0 0 0 0 0 0 0 0 0.12 0"/>
<feBlend mode="normal" in2="BackgroundImageFix" result="effect1_dropShadow_61_6642"/>
<feBlend mode="normal" in="SourceGraphic" in2="effect1_dropShadow_61_6642" result="shape"/>
</filter>
<linearGradient id="paint0_linear_61_6642" x1="345" y1="0" x2="276" y2="57" gradientUnits="userSpaceOnUse">
<stop stop-color="#FF4D78"/>
<stop offset="1" stop-color="#FF9600"/>
</linearGradient>
</defs>
</svg>

<svg width="345" height="354" viewBox="0 0 345 359" fill="none" xmlns="http://www.w3.org/2000/svg"><path d="M25.667 307a5.333 5.333 0 1 0 10.666 0 5.333 5.333 0 1 0-10.666 0Zm58.31-76.774-.062-.998.061.998ZM301.666 69a5.333 5.333 0 1 0 10.665.001A5.333 5.333 0 0 0 301.667 69ZM31.947 307.319c5.02-14.902 11.434-33.588 19.97-48.755 8.576-15.236 19.079-26.537 32.12-27.34l-.122-1.996c-14.166.872-25.137 13.068-33.74 28.355-8.643 15.357-15.113 34.221-20.123 49.098l1.896.638Zm52.09-76.095c16.758-1.032 29.573 5.141 43.039 9.549 13.458 4.405 27.322 6.911 45.631-1.97l-.873-1.8c-17.663 8.568-30.941 6.188-44.135 1.869-13.186-4.316-26.531-10.706-43.784-9.644l.123 1.996Zm88.67 7.579c18.485-8.967 22.628-27.281 25.806-43.544 1.606-8.214 2.954-15.856 5.662-21.819 2.675-5.887 6.62-10.011 13.414-11.329l-.381-1.964c-7.595 1.474-11.989 6.162-14.854 12.466-2.83 6.23-4.22 14.161-5.803 22.262-3.199 16.366-7.231 33.647-24.717 42.128l.873 1.8Zm44.882-76.692c14.831-2.878 22.41-13.182 28.095-22.756 2.874-4.841 5.205-9.381 7.79-12.913 2.568-3.511 5.204-5.755 8.53-6.199l-.264-1.982c-4.145.553-7.206 3.344-9.88 7-2.659 3.633-5.116 8.391-7.896 13.073-5.623 9.469-12.811 19.108-26.756 21.813l.381 1.964Zm44.415-41.868c5.522-.736 10.626-3.897 15.264-8.208 4.646-4.318 8.905-9.864 12.737-15.516 3.832-5.651 7.271-11.463 10.244-16.297 3.01-4.895 5.482-8.683 7.431-10.488l-1.36-1.468c-2.194 2.034-4.817 6.098-7.775 10.908-2.996 4.872-6.396 10.62-10.195 16.223-3.798 5.602-7.959 11.006-12.443 15.173-4.491 4.173-9.225 7.032-14.167 7.691l.264 1.982Z" fill="#0062F5"/><g filter="url(#a)"><path d="M3 326a8 8 0 0 1 8-8h39a8 8 0 0 1 8 8v20a8 8 0 0 1-8 8H11a8 8 0 0 1-8-8v-20Z" fill="#fff"/><path d="M11 317.5a8.5 8.5 0 0 0-8.5 8.5v20a8.5 8.5 0 0 0 8.5 8.5h39a8.5 8.5 0 0 0 8.5-8.5v-20a8.5 8.5 0 0 0-8.5-8.5H11Z" stroke="#000" stroke-opacity=".08"/><path d="M24.337 330.818V341h-1.412l-5.176-7.467h-.094V341h-1.536v-10.182h1.422l5.18 7.477h.094v-7.477h1.522Zm5.338 10.336c-.716 0-1.34-.164-1.874-.492a3.318 3.318 0 0 1-1.243-1.377c-.295-.59-.443-1.28-.443-2.068 0-.793.148-1.485.443-2.079a3.32 3.32 0 0 1 1.243-1.382c.533-.328 1.158-.492 1.874-.492.716 0 1.34.164 1.874.492a3.32 3.32 0 0 1 1.243 1.382c.295.594.443 1.286.443 2.079 0 .788-.148 1.478-.443 2.068a3.318 3.318 0 0 1-1.243 1.377c-.533.328-1.158.492-1.874.492Zm.005-1.248c.464 0 .848-.122 1.153-.368.305-.245.53-.571.676-.979.15-.408.224-.857.224-1.347a3.88 3.88 0 0 0-.224-1.343 2.188 2.188 0 0 0-.676-.989c-.305-.249-.69-.373-1.153-.373-.468 0-.855.124-1.163.373a2.223 2.223 0 0 0-.682.989 3.963 3.963 0 0 0-.218 1.343c0 .49.073.939.218 1.347.15.408.377.734.681.979.309.246.697.368 1.164.368ZM36.317 341l-2.247-7.636h1.536l1.496 5.608h.075l1.501-5.608h1.537l1.491 5.583h.075l1.486-5.583h1.536L42.561 341h-1.516l-1.551-5.513h-.115L37.83 341h-1.512Z" fill="#000"/></g><path d="M276 8a8 8 0 0 1 8-8h53a8 8 0 0 1 8 8v41a8 8 0 0 1-8 8h-53a8 8 0 0 1-8-8V8Z" fill="url(#b)"/><path d="M294.5 15.746c-.04-.4-.21-.712-.512-.934-.302-.222-.711-.333-1.228-.333-.351 0-.648.05-.89.149-.242.096-.427.23-.557.402a.97.97 0 0 0-.189.587.842.842 0 0 0 .115.477c.086.136.204.254.353.353.149.097.321.181.517.254.195.07.404.13.626.179l.915.219c.444.1.852.232 1.223.397.371.166.693.37.965.612.271.242.482.527.631.855.152.328.23.704.234 1.129-.004.623-.163 1.163-.478 1.62-.311.454-.762.807-1.352 1.06-.587.248-1.294.372-2.123.372-.822 0-1.538-.126-2.148-.378-.606-.252-1.08-.624-1.421-1.118-.338-.497-.516-1.112-.532-1.845h2.083c.023.342.121.627.293.855.176.226.409.396.701.512.295.113.628.17.999.17.365 0 .681-.053.95-.16.272-.106.482-.253.631-.442.149-.189.224-.406.224-.651a.846.846 0 0 0-.204-.577c-.132-.156-.328-.288-.586-.398a6.004 6.004 0 0 0-.94-.298l-1.109-.279c-.858-.208-1.536-.535-2.033-.979-.497-.444-.744-1.042-.741-1.795-.003-.616.161-1.155.492-1.615.335-.461.794-.82 1.377-1.08.584-.258 1.247-.387 1.989-.387.756 0 1.415.13 1.979.388.566.258 1.007.618 1.322 1.079.315.46.477.994.487 1.6H294.5Zm7.091 7.403c-.786 0-1.462-.159-2.029-.477a3.27 3.27 0 0 1-1.302-1.362c-.305-.59-.457-1.288-.457-2.093 0-.786.152-1.475.457-2.069a3.38 3.38 0 0 1 1.288-1.387c.556-.331 1.209-.497 1.958-.497.504 0 .973.081 1.407.244.438.159.819.4 1.144.72.328.322.583.726.765 1.214.183.484.274 1.05.274 1.7v.582h-6.448V18.41h4.454c0-.305-.066-.575-.199-.81a1.42 1.42 0 0 0-.551-.552 1.577 1.577 0 0 0-.811-.204 1.63 1.63 0 0 0-.855.224 1.577 1.577 0 0 0-.577.591 1.67 1.67 0 0 0-.213.82v1.249c0 .378.069.704.208.98.143.274.343.486.602.636.258.149.565.223.92.223.235 0 .45-.033.646-.1.196-.066.363-.165.502-.297a1.3 1.3 0 0 0 .318-.488l1.959.13c-.099.47-.303.881-.611 1.233-.305.348-.7.62-1.184.815-.48.192-1.035.288-1.665.288Zm4.887 2.715v-10.5h2.088v1.282h.095c.092-.205.227-.414.402-.626.179-.215.411-.394.696-.537.289-.146.647-.219 1.074-.219.557 0 1.071.146 1.541.438.471.288.847.724 1.129 1.307.282.58.422 1.308.422 2.183 0 .852-.137 1.57-.412 2.157-.272.584-.643 1.026-1.114 1.328a2.858 2.858 0 0 1-1.571.447c-.411 0-.761-.068-1.049-.203a2.167 2.167 0 0 1-.701-.513 2.603 2.603 0 0 1-.417-.631h-.065v4.087h-2.118Zm2.073-6.682c0 .454.063.85.189 1.188.126.338.308.602.547.79.239.186.529.279.87.279.345 0 .636-.095.875-.284.239-.192.419-.457.542-.795.126-.341.189-.734.189-1.178 0-.441-.062-.829-.184-1.163a1.733 1.733 0 0 0-.542-.786c-.239-.189-.532-.283-.88-.283-.345 0-.636.09-.875.273-.235.182-.416.44-.542.776-.126.334-.189.729-.189 1.183Zm14.436-6.364V23h-2.152v-8.139h-.06l-2.332 1.462v-1.909l2.521-1.596h2.023ZM325.81 23l4.221-8.352v-.07h-4.917v-1.76h7.144v1.785L328.032 23h-2.222Zm-29.892 20v-1.142l3.03-2.97c.29-.293.531-.553.724-.78.194-.227.338-.447.435-.66.097-.214.145-.44.145-.682 0-.276-.063-.512-.188-.708a1.244 1.244 0 0 0-.515-.46 1.667 1.667 0 0 0-.746-.162c-.287 0-.538.06-.754.18a1.23 1.23 0 0 0-.503.498 1.608 1.608 0 0 0-.175.77h-1.504c0-.553.126-1.035.379-1.444.253-.409.601-.725 1.044-.95.446-.224.958-.337 1.534-.337.586 0 1.1.11 1.543.328.443.22.787.519 1.031.9.247.38.371.815.371 1.304 0 .326-.063.647-.188.963-.125.315-.345.664-.66 1.048-.313.384-.751.848-1.317 1.394l-1.504 1.53v.059h3.801V43h-5.983Zm10.679.166c-.702 0-1.304-.177-1.807-.532-.5-.358-.885-.874-1.155-1.547-.267-.677-.4-1.49-.4-2.442.003-.952.138-1.762.405-2.43.27-.67.655-1.18 1.155-1.533.502-.352 1.103-.529 1.802-.529.699 0 1.3.177 1.803.529.503.352.887.863 1.155 1.534.269.67.404 1.48.404 2.429 0 .954-.135 1.77-.404 2.446-.268.673-.652 1.187-1.155 1.542-.5.356-1.101.533-1.803.533Zm0-1.334c.546 0 .976-.268 1.291-.805.318-.54.478-1.334.478-2.382 0-.693-.073-1.276-.218-1.747-.145-.472-.349-.827-.613-1.066a1.346 1.346 0 0 0-.938-.362c-.542 0-.971.27-1.287.81-.315.537-.474 1.325-.477 2.365-.003.696.067 1.281.209 1.756.145.474.349.832.613 1.073.265.24.578.358.942.358ZM311.375 43v-1.142l3.03-2.97c.29-.293.531-.553.724-.78a2.82 2.82 0 0 0 .435-.66c.097-.214.145-.44.145-.682 0-.276-.063-.512-.188-.708a1.244 1.244 0 0 0-.515-.46 1.664 1.664 0 0 0-.746-.162c-.287 0-.538.06-.754.18a1.23 1.23 0 0 0-.503.498 1.608 1.608 0 0 0-.175.77h-1.504c0-.553.126-1.035.379-1.444.253-.409.601-.725 1.044-.95.446-.224.958-.337 1.534-.337.586 0 1.1.11 1.543.328.443.22.787.519 1.031.9.247.38.371.815.371 1.304 0 .326-.062.647-.187.963-.125.315-.346.664-.661 1.048-.312.384-.751.848-1.317 1.394l-1.504 1.53v.059h3.801V43h-5.983Zm7.108-1.62v-1.256l3.703-5.851h1.049v1.79h-.64l-2.493 3.95v.068h5.169v1.3h-6.788Zm4.163 1.62v-2.003l.018-.562v-6.162h1.491V43h-1.509Z" fill="#fff"/><path fill="#000" fill-opacity=".08" d="M3 305h342v1H3zM3 258h342v1H3zM3 211h342v1H3zM3 164h342v1H3zM3 117h342v1H3zM3 70h342v1H3z"/><defs><linearGradient id="b" x1="345" y1="0" x2="276" y2="57" gradientUnits="userSpaceOnUse"><stop stop-color="#FF4D78"/><stop offset="1" stop-color="#FF9600"/></linearGradient><filter id="a" x="0" y="317" width="61" height="42" filterUnits="userSpaceOnUse" color-interpolation-filters="sRGB"><feFlood flood-opacity="0" result="BackgroundImageFix"/><feColorMatrix in="SourceAlpha" values="0 0 0 0 0 0 0 0 0 0 0 0 0 0 0 0 0 0 127 0" result="hardAlpha"/><feMorphology radius="2" in="SourceAlpha" result="effect1_dropShadow_61_6642"/><feOffset dy="2"/><feGaussianBlur stdDeviation="2"/><feColorMatrix values="0 0 0 0 0 0 0 0 0 0 0 0 0 0 0 0 0 0 0.12 0"/><feBlend in2="BackgroundImageFix" result="effect1_dropShadow_61_6642"/><feBlend in="SourceGraphic" in2="effect1_dropShadow_61_6642" result="shape"/></filter></defs></svg>
